dist/images/logo/ristorante-icon.svg

<svg width="40" height="24" fill="none" xmlns="http://www.w3.org/2000/svg"><path d="M8 14H2V8h6v6zm8-6h-6v6h6V8zm-4-8H6v6h6V0zm20 12c-7.5 0-11.44 2.5-14 4H0c0 4.42 3.58 8 8 8h2c2 0 3.84-.74 5.24-2 2.88-2.44 6.12-4.52 9.86-5.28 2.12-.42 4.46-.72 6.9-.72h8v-4h-8z" fill="#FF893B"/></svg>

<svg width="40" height="24" viewBox="0 0 40 24" fill="none" xmlns="http://www.w3.org/2000/svg">
<path d="M8 14H2V8H8V14ZM16 8H10V14H16V8ZM12 0H6V6H12V0ZM32 12C24.5 12 20.56 14.5 18 16H0C0 20.42 3.58 24 8 24H10C12 24 13.84 23.26 15.24 22C18.12 19.56 21.36 17.48 25.1 16.72C27.22 16.3 29.56 16 32 16H40V12H32Z" fill="#FF893B"/>
</svg>
